img/hide_password.svg

<svg width="24" height="16" viewBox="0 0 24 16" fill="none" xmlns="http://www.w3.org/2000/svg">
<path d="M18.9618 15.793C19.2353 16.0603 19.6765 16.0776 19.9588 15.793C20.25 15.4999 20.2324 15.086 19.9588 14.8187L4.98529 0.203717C4.71176 -0.0635774 4.26177 -0.0721998 3.98824 0.203717C3.72353 0.462389 3.72353 0.910754 3.98824 1.16943L18.9618 15.793ZM19.7912 13.1546C22.3676 11.4646 24 9.17963 24 8.16219C24 6.42047 19.1559 0.772795 12 0.772795C10.5 0.772795 9.09706 1.02284 7.82647 1.43672L10.2441 3.79926C10.7912 3.5837 11.3824 3.46298 12.0088 3.46298C14.6824 3.46298 16.8441 5.54098 16.8441 8.17081C16.8441 8.77438 16.7118 9.3607 16.4735 9.88667L19.7912 13.1546ZM12 15.5602C13.6147 15.5602 15.1147 15.2757 16.4382 14.8014L14.0029 12.4217C13.4029 12.7148 12.7235 12.87 12.0088 12.87C9.31765 12.87 7.17353 10.723 7.16471 8.17081C7.16471 7.45515 7.32353 6.78261 7.61471 6.18766L4.42941 3.05773C1.68529 4.78221 0 7.14475 0 8.16219C0 9.91254 4.93235 15.5602 12 15.5602ZM14.8235 7.98974C14.8235 6.48082 13.5882 5.26506 12.0353 5.26506C11.9382 5.26506 11.8412 5.27369 11.7529 5.28231L14.8059 8.25704C14.8147 8.17943 14.8235 8.08459 14.8235 7.98974ZM9.16765 8.02423C9.16765 9.53315 10.4382 10.7489 11.9735 10.7489C12.0794 10.7489 12.1765 10.7403 12.2735 10.7317L9.18529 7.71382C9.17647 7.81729 9.16765 7.92076 9.16765 8.02423Z" fill="#AAB8C6"/>
</svg>

<svg width="24" height="16" fill="none" xmlns="http://www.w3.org/2000/svg"><path d="M18.962 15.793a.704.704 0 0 0 .997 0 .666.666 0 0 0 0-.974L4.985.204a.712.712 0 0 0-.997 0 .686.686 0 0 0 0 .965l14.974 14.624zm.83-2.638C22.367 11.465 24 9.18 24 8.162c0-1.742-4.844-7.39-12-7.39-1.5 0-2.903.25-4.174.665l2.418 2.362a4.789 4.789 0 0 1 1.765-.336c2.673 0 4.835 2.078 4.835 4.708 0 .603-.132 1.19-.37 1.716l3.317 3.268zM12 15.56c1.615 0 3.115-.284 4.438-.759l-2.435-2.38c-.6.294-1.28.449-1.994.449-2.691 0-4.835-2.147-4.844-4.7 0-.715.159-1.387.45-1.982l-3.186-3.13C1.685 4.782 0 7.145 0 8.162c0 1.75 4.932 7.398 12 7.398zm2.823-7.57c0-1.51-1.235-2.725-2.788-2.725a2.92 2.92 0 0 0-.282.017l3.053 2.975a2.41 2.41 0 0 0 .018-.267zm-5.655.034c0 1.51 1.27 2.725 2.806 2.725.105 0 .203-.009.3-.017L9.184 7.714a3.66 3.66 0 0 0-.017.31z" fill="#AAB8C6"/></svg>
